X:1
T:Stay heart, run not so fast - Morley
T:James Gibb editions
T:#
%%score { 1 | 2 } 3 { 4 | 5 } 6
L:1/8
Q:1/4=107
M:4/4
K:C
V:1 treble nm="Soprano I" snm="S"
V:2 treble 
V:3 treble nm="Alto" snm="A"
V:4 treble-8 nm="Tenor I" snm="T "
V:5 treble-8 
V:6 bass nm="Bass" snm="B"
V:1
"^Thomas Morley\n(1557-1603)""^Stay heart, run not so fast" e8 | e8 | z2 e2 e2 e2 | dcBc d2 c2 | %4
w: Stay|heart,|run not, run|not so fast, so fast from|
 B4 B2 (e2- | e2 dc d4) | e4 e4 |[M:4/4] e4 d4- | d2 c2 (c4- | c4 B4) | c4 e4 | d6 c2 | %12
w: him that loves||thee, from|from him|* that loves||thee To|her that|
 B2 A2 (A4- | A4 ^G4) | A8 | z8 | z8 | z8 | e8 | A4 A4 | d6 d2 | c4 A4 | e4 e4- | e2 e2 d4- | %24
w: dead- ly hates||thee.||||Her|sharp dis-|dain re-|proves thee,|And worse|* than ill|
 d2 c2 (c4 | c4 B4) | c4 c2 cd | e4 z4 | z8 | c2 cd e3 f | g2 g2 z4 | G2 GA B3 c | d2 d2 ddde | %33
w: * still rates||thee. Then let her|go,||then let her go and|spare not,|then let her go and|spare not, let her go and|
 f2 f2 z2 f2 | e2 c2 e2 e2 | d4 d4 | e4 e4 | e8 | e8 | z8 | z8 | z8 | z4 z2 e2 | g3 f e2 d2 | %44
w: spare not; Hold|thou thy- self con-|tent- ed|and I|care|not.||||My|love, my love is|
 e3 e e2 e2 | e2 d2 e4 | e8 | c8 | c8 | B8 | z8 | z4 g4- | g4 d4 | e8 | z2 c2 c2 c2 | f6 f2 | %56
w: gone and with her,|'Go, my sor-|row'.|O|vile|wretch,||O|* vile|wretch.|Thou lovedst her|once and|
 e2 c2 e4- | e2 d2 (c4- | c2 BA B4) | c4 z2 g2 | g3 f e2 e2 | d4 c4 | z4 z2 g2 | g3 f e2 e2 | %64
w: why now dost|* thou va\-||ry? Then|straight a- way I|haste me,|then|straight a- way I|
 f4 e2 d2 | ^c4 d4 | z8 | z8 | z4 z2 A2 | Bcdc B2 e2 | d2 c2 B2 c2 | B2 A2 (A2 ^G2) | A8 | B8 | %74
w: haste me, I|haste me,|||And|af- ter her will run while|life shall last, while|life shall last *|me;|Ah,|
 c4 c4 | A4 d4 | c8 | B8 | z8 | z4 e4- | e2 B2 c4 | B4 B4 | c3 B A2 A2 | E4 E4 | z4 e4 | e6 e2 | %86
w: death his|force now|try-|eth,||Flo\-|* ra fare-|well, for|lo, thy shep- herd|di- eth,|for|lo, thy|
 e4 c4 | B8 | ^c8 |] %89
w: shep- herd|di-|eth.|
V:2
 c8 | B8 | z2 c2 c2 c2 | Bcdc B2 A2 | ^G4 G4 | A8 | ^G4 =G4 |[M:4/4] A4 A4 | G8 | G8 | z4 g4 | %11
w: Stay|heart,|run not, run|not so fast, so fast from|him that|loves|thee, from|him that|loves|thee|To|
 g4 f4 | e4 e4 | e8 | e8 | z8 | z4 B4 | ^G4 G4 | A6 G2 | (^F2 G2 A4- | A2 ^G^F G4) | A8 | z4 e4 | %23
w: her that|dead- ly|hates|thee.||Her|sharp dis-|dain re-|proves * *||thee,|And|
 a4 a4 | g4 g4 | g8 | e4 e2 ef | g4 z4 | z4 c2 cd | e4 c2 cd | e3 f g4 | g4 z4 | G2 GA B3 c | %33
w: worse than|ill still|rates|thee. Then let her|go,|then let her|go, then let her|go and spare|not,|then let her go and|
 d2 d2 c2 AB | c4 c4 | B4 A4 | ^G4 A4 | B8 | ^c4 z2 =c2 | c3 B A2 c2 | B6 B2 | c2 c2 d4 | %42
w: spare not; Hold thou thy-|self con-|tent- ed|and I|care|not. Up,|gen- tle swains, we'll|have a|round this mor-|
 e4 z2 c2 | e3 d B2 A2 | B3 B B2 c2 | B2 A2 B4 | ^c8 | z4 f4- | f4 e4 | d4 z2 g2 | f4 e2 e2 | %51
w: row; My|love, my love is|gone and with her,|'Go, my sor-|row'.|O|* vile|wretch that|so base a|
 d2 c2 (c4- | c4 B4) | c8 | z8 | z8 | z8 | z8 | z4 z2 g2 | g2 f2 e2 e2 | d4 c4 | z4 z2 g2 | %62
w: mind dost car\-||ry.|||||Then|straight a- way I|haste me,|then|
 g3 f e2 e2 | d4 c2 c2 | c3 c c2 A2 | A4 A4 | z8 | z8 | z4 z2 d2 | dcBc d2 c2 | B2 A2 ^G2 e2 | %71
w: straight a- way I|haste me, then|straight a- way I|haste me,|||And|af- ter her will run, will|run while life, while|
 d2 c2 B4 | ^c8 | e8 | e4 e4 | f4 f4 | e8 | e8 | z4 e4- | e2 B2 c4 | B4 (A4- | A4 ^G4) | A8 | %83
w: life shall last|me;|Ah,|death his|force now|try-|eth,|Flo\-|* ra fare-|well, fare\-||well|
 z4 e4 | e4 c4 | B6 (cd) | e8- | e8 | e8 |] %89
w: for|lo, thy|shep- herd *|di\-||eth.|
V:3
 A8 | G8 | z2 G2 G2 G2 | G3 G G2 E2- | E2 E4 E2 | A,8 | B,8 |[M:4/4] z4 F4 | F4 E4 | D8 | E4 c4 | %11
w: Stay|heart,|run not so|fast, so fast from|* him that|loves|thee,|from|him that|loves|thee To|
 B4 A4 | ^G4 A4 | B8 | ^c8 | A8 | ^G6 A2 | B4 E4 | E4 E4 | D4 A,4 | B,8 | E4 A4 | G4 G4 | A8 | %24
w: her that|dead- ly|hates|thee.|Her|sharp dis-|dain, her|sharp dis-|dain re-|proves|thee, And|worse than|ill|
 D4 G4- | G8 | G8 | E2 EF G2 G2 | A8 | G8 | z4 G2 GA | B3 c d2 d2 | z8 | FFFG A2 A2 | G2 EF G2 G2 | %35
w: still rates||thee.|Then let her go and|spare|not,|then let her|go and spare not,||let her go and spare not;|Hold thou thy- self con-|
 G4 A4 | B4 A4 | (A4 ^G4) | A4 z2 A2 | A3 E F2 E2 | G6 G2 | A2 G2 (F2 D2) | G6 G2 | c3 A ^G2 A2 | %44
w: tent- ed|and I|care *|not. Up,|gen- tle swains, we'll|have a|round this mor\- *|row; My|love, my love is|
 ^G3 G G2 A2 | ^G2 A2 (A2 G2) | A8 | F8 | G8 | G6 G2 | c4 c2 c2 | A4 G4 | G8 | G2 G2 G2 G2 | A8 | %55
w: gone and with her,|'Go, my sor\- *|row'.|O|vile|wretch that|so base a|mind dost|car-|ry. Thou lovest her|once,|
 z2 A2 d2 d2 | c2 A2 c2 c2 | B4 G4 | G8 | G4 z2 c2 | c2 B2 c2 G2 | G3 F E2 E2 | D4 C2 c2 | %63
w: thou lovedst her|once and why now|dost thou|va-|ry? Then|straight a- way, then|straight a- way I|haste me, then|
 c2 B2 c2 G2 | A3 A G2 F2 | E4 D4 | z4 z2 c2 | BAGA B2 ^c2 | d2 B2 A4 | G2 G2 GFEF | G2 A2 E2 C2 | %71
w: straight a- way, then|straight a- way I|haste me,|And|af- ter her will run while|life shall last|me, and af- ter her will|run while life, while|
 G2 A2 E4 | A,8 | ^G8 | A6 G2 | F4 A4 | A8 | ^G4 B4- | B2 B2 A4 | ^G4 z4 | z8 | z8 | z4 c4 | %83
w: life shall last|me;|Ah,|death his|force now|try-|eth, Flo\-|* ra fare-|well,|||fare-|
 c4 B4 | B2 A2 (A4- | A2 ^G^F !courtesy!^G2) A2 | (B4 A4- | A2 ^G^F G4) | A8 |] %89
w: well for|lo, thy shep\-|* * * * herd|di\- *||eth.|
V:4
 A8 | e8 | z2 c2 c2 c2 | G3 G G2 A2 | E4 E4 | F8 | E4 E4 |[M:4/4][K:treble-8] F4 F4 | G8- | G8 | %10
w: Stay|heart,|run not so|fast, so fast from|him that|loves|thee, from|him that|loves||
 c4 c4 | d4 d4 | e4 e4 | e8 | A8 | e8 | e8 | z4 e4 | ^c4 c4 | d4 d4 | D8 | E4 e4 | e4 g4 | f8- | %24
w: thee To|her that|dead- ly|hates|thee.|Her|sharp,|her|sharp dis-|dain re-|proves|thee, And|worse than|ill|
 f4 e4 | d8 | c8 | c2 cd e2 e2 | f4 f4 | e2 ef g2 g2 | (g4 e4) | d4 z4 | d2 dc B2 G2 | A2 AA ABcd | %34
w: * still|rates|thee.|Then let her go and|spare not,|then let her go and|spare *|not,|then let her go and|spare not; Hold thou thy- self con-|
 e4 c4 | d8- | d4 c4 | B8 | A8 | z8 | z8 | z8 | z4 z2 c2 | c3 d e2 f2 | e3 e e2 A2 | e2 f2 e4 | %46
w: tent- ed|and|* I|care|not.||||My|love, my love is|gone, and with her,|'Go, my sor-|
 A8 | c8 | c8 | d4 d2 d2 | a4 g4 | f4 e4 | d8 | c8 | z2 f2 c2 c2 | d4 a4 | a4 a4 | g4 e4 | d8 | %59
w: row'.|O|vile|wretch that so|base a|mind dost|car-|ry.|Thou lovedst her|once and|why now|dost thou|va-|
 c4 z2 c2 | g2 g2 c2 c2 | (d2 g2) g2 G2 | G2 G2 c2 c2 | g4 c4 | z8 | z4 z2 f2 | edcd e2 ^f2 | %67
w: ry? Then|straight a- way I|haste * me, then|straight a- way I|haste me,||And|af- ter her will run while|
 g6 g2 | ^f2 g2 (g2 f2) | g4 z4 | z8 | z8 | z8 | e8 | e4 e4 | d4 d4 | e8 | e8 | z4 e4 | e4 e4 | %80
w: life, while|life shall last *|me;||||Ah,|death his|force now|try-|eth,|Flo-|ra fare-|
 e8- | e8 | z4 e4 | a4 g4 | e6 A2 | B4 e4 | e8- | e8 | e8 |] %89
w: well,||fare-|well for|lo, thy|shep- herd|di\-||eth.|
V:5
 z8 | z8 | z8 | z8 | z8 | z8 | z8 |[M:4/4][K:treble-8] z8 | z8 | z8 | z8 | z8 | z8 | z8 | z8 | c8 | %16
w: |||||||||||||||Her|
 B4 B4 | E4 B4 | A8 | A8 | z8 | z4 c4- | c4 e4 | A8 | B4 c4 | (d4 G4) | G8 | z8 | A2 AB c2 c2 | %29
w: sharp dis-|dain re-|proves|thee,||And|* worse|than|ill still|rates *|thee.||Then let her go and|
 c2 c2 z4 | c4 c2 c2 | B4 G2 GA | B3 c (d2 B2) | A2 F2 (FGA)F | G6 A2 | (B2 G2) d4 | B4 e4 | e8 | %38
w: spare not,|then let her|go, then let her|go and spare *|not; Hold thou * * thy-|self con-|tent\- * ed|and I|care|
 e4 z2 e2 | e3 B c2 c2 | d2 (GABc) d2- | dc (c4 B2) | c8 | z8 | z8 | z8 | z8 | A4 A4 | G8 | z4 G4 | %50
w: not. Up,|gen- tle swains, we'll|have a * * * round|* this mor\- *|row;|||||O vile|wretch|that|
 A4 c2 c2 | F4 c4 | G8 | G4 z2 c2 | c2 c2 f4- | f2 f2 d4 | e4 c4 | (G6 A2 | B2) (c2 d2 G2) | G8 | %60
w: so base a|mind dost|car-|ry. Thou|lovedst her once|* and why|now dost|thou *|* va\- * *|ry?|
 z4 z2 c2 | c2 B2 cdef | g4 g4 | z8 | z8 | z4 z2 d2 | cBAB c2 A2 | d6 G2 | (A2 Bc d4) | d4 z4 | %70
w: Then|straight a- way a- way I|haste me,|||And|af- ter her will run while|life shall|last * * *|me;|
 z8 | z8 | z8 | B8 | A4 A4 | A4 A4 | A8 | B4 e4- | e2 B2 c4 | B4 A4 | ^G2 G2 A2 A2 | E8 | A8 | z8 | %84
w: |||Ah,|death his|force now|try-|eth, Flo\-|* ra fare-|well for|lo, thy shep- herd|di-|eth,||
 z4 e4 | e4 B4 | ^G4 A4 | B8 | A8 |] %89
w: for|lo, thy|shep- herd|di-|eth.|
V:6
 z8 | z8 | z8 | z8 | z8 | z8 | x8 |[M:4/4] z8 | z8 | z8 | z8 | z8 | z8 | z8 | z8 | A,8 | E,8 | %17
w: |||||||||||||||Her|sharp,|
 z4 E,4 | A,,4 A,,4 | D,6 C,2 | B,,8 | A,,4 A,4 | C4 C4 | F,4 F,4 | G,8- | G,8 | C,8- | C,8 | %28
w: her|sharp dis-|dain re-|proves|thee, And|worse than|ill still|rates||thee.||
 F,2 F,G, A,3 B, | C4 C4 | C,2 C,D, E,3 F, | G,4 G,4 | G,4 G,2 G,2 | F,2 D,2 F,4 | C,8 | G,4 F,4 | %36
w: Then let her go and|spare not,|then let her go and|spare not;|Hold thou thy-|self con- tent-|ed|and I|
 E,8- | E,8 | A,,6 A,2 | A,3 G, F,2 A,2 | G,6 G,2 | F,2 E,2 D,4 | C,8 | z8 | z8 | z8 | z8 | F,8 | %48
w: care||not. Up,|gen- tle swains, we'll|have a|round this mor-|row;|||||O|
 C,8 | G,8 | z8 | z8 | z4 G,4 | C,8 | F,8 | z2 D,2 D,2 D,2 | A,4 A,4 | E,3 E, E,2 F,2 | G,8 | C,8 | %60
w: vile|wretch,|||O|vile|wretch,|Thou lovedst her|once and|why now dost thou|va-|ry?|
 z4 z2 C,2 | G,2 G,2 C,2 C2 | C2 B,2 C4 | G,4 z2 C,2 | F,G,A,B, C2 D2 | A,4 D,2 D,2 | %66
w: Then|straight a- way, a-|way I haste|me, then|straight a- way I haste, I|haste me, And|
 A,3 A, A,2 A,2 | G,6 E,2 | D,2 D,2 D,4 | G,4 z4 | z8 | z8 | z8 | E,8 | A,,4 A,,4 | D,4 D,4 | %76
w: af- ter her will|run while|life shall last|me;||||Ah,|death his|force now|
 A,,8 | E,4 E,4 | ^G,4 A,4 | E,8- | E,8 | z8 | z4 A,4 | A,4 E,4 | ^G,4 A,4 | E,8- | E,8 | E,8 | %88
w: try-|eth, Flo-|ra fare-|well|||for|lo, thy|shep- herd|di\-|||
 A,,8 |] %89
w: eth.|

